X: 28
T:Iggie and Squiggie
M:4/4
L:1/8
C:JerryHolland
R:Reel
K:D
"D"fgfe d2 fd|"G"B2 dB "D"BAFA|"D"fgfe d2 fd|"G"ABde "A7"fe e2|!
"D"fgfe d2 fd|"G"B2 dB "D"BAFA|"D"fgfe "Bm"dedc|1"A"BABc "D"d2 z2:|2"A"B
ABc "D"d2::fg|!
"D"ad d/d/d adbd|"D"ad d/d/d "A7"agfg|"D"ad d/d/d adbd|"G"fede "A7"fecf|
